reorder-vertical.svg

<svg fill="currentColor" viewBox="0 0 24 24"><path d="M9 3v18h2V3zM5 3v18h2V3zm8 0v18h2V3zm6 0h-2v18h2z"/></svg>

<svg  viewBox="0 0 24 24" fill="currentColor"><path  d="M9,3V21H11V3H9M5,3V21H7V3H5M13,3V21H15V3H13M19,3H17V21H19V3Z"/></svg>
